X: 587
T: Nao wugeng
L: 1/8
M: 2/4
K: G
zd2B [I:setbarnb 1]| 
A2z d- | 
d BA2 | 
G A G A | 
zd2B | 
A2B d | 
B d B A | 
G2G B | 
A G z F- | 
F ED2 |]

@@@ Tune index: 9461
